bullet.svg

<?xml version="1.0" encoding="iso-8859-1"?>

<!DOCTYPE svg PUBLIC "-//W3C//DTD SVG 1.1//EN" "http://www.w3.org/Graphics/SVG/1.1/DTD/svg11.dtd">
<!-- Uploaded to: SVG Repo, www.svgrepo.com, Generator: SVG Repo Mixer Tools -->
<svg version="1.1" id="_x35_" xmlns="http://www.w3.org/2000/svg" xmlns:xlink="http://www.w3.org/1999/xlink" 
	 viewBox="0 0 512 512"  xml:space="preserve">
<g>
	<rect x="14.327" y="248.362" style="fill:#AEADAD;" width="119.35" height="255.492"/>
	<path style="fill:#C96A55;" d="M126.346,173.66v3.932H74.835c-0.533,0-0.8,0-0.8,0s-23.523,0-52.311,0v-1.999
		c0.2-54.711,8.929-99.625,19.925-130.279C52.111,16.327,64.573,0,74.035,0c0.266,0,0.533,0,0.8,0.067c0.067,0,0.133,0,0.2,0.067
		c0.533,0,1.133,0.133,1.666,0.334c0.666,0.133,1.266,0.4,1.932,0.733c0.666,0.266,1.266,0.666,1.932,1.066
		c0.067,0.067,0.067,0.067,0.133,0.133c0.666,0.399,1.266,0.866,1.932,1.466c0.667,0.533,1.333,1.066,1.999,1.733
		c3.332,3.265,6.797,7.93,10.196,13.927c0.733,1.267,1.466,2.599,2.199,3.998c0,0,0.067,0,0.067,0.067
		c0.666,1.399,1.399,2.798,2.132,4.265c0.8,1.799,1.666,3.598,2.532,5.531c1.2,2.799,2.332,5.732,3.599,8.864
		c0.733,1.999,1.466,4.131,2.199,6.264c1.332,3.866,2.599,7.863,3.798,12.129c5.065,17.458,9.33,38.25,11.995,61.907
		c0.466,4.265,0.866,8.597,1.266,12.995c0.333,4.198,0.666,8.463,0.933,12.861c0.267,5.398,0.533,10.929,0.667,16.526v0.933
		C126.28,168.462,126.346,171.061,126.346,173.66z"/>
	<rect x="20.991" y="175.593" style="fill:#F9D99F;" width="106.089" height="40.583"/>
	<g>
		<path style="fill:#CDB985;" d="M138.608,237.7c0.333,3.731-2.865,7.33-7.264,7.33c-22.523,0-39.583,0.067-56.509,0.067
			c-17.593,0-35.052,0-58.508-0.067c-4.398,0-7.597-3.599-7.264-7.33c0-0.8,0.2-1.533,0.6-2.332
			c3.398-6.997,5.264-10.463,8.929-17.459c0.6-1.066,1.4-1.933,2.399-2.532c1.2-0.866,2.666-1.266,4.132-1.333
			c19.925-0.067,34.785-0.067,49.713-0.067c14.261,0,28.654,0,47.713,0.067c1.666,0.067,3.265,0.599,4.531,1.599v0.067
			c0.133,0,0.266,0.133,0.4,0.266c0.133,0.133,0.333,0.267,0.467,0.466c0.466,0.467,0.866,0.934,1.133,1.467
			c3.665,6.997,5.531,10.462,8.929,17.459c0.2,0.334,0.333,0.733,0.4,1.132C138.541,236.9,138.608,237.3,138.608,237.7z"/>
	</g>
	<path style="fill:#F9D99F;" d="M149.67,511.984H0l4.398-2.866l4.198-2.733c0-3.065,2.532-5.464,5.731-5.597h120.816
		c3.265,0,5.931,2.466,5.931,5.597L149.67,511.984z"/>
	<rect x="8.929" y="237.7" style="fill:#F9D99F;" width="130.212" height="255.558"/>
	<path style="opacity:0.06;fill:#FFFFFF;" d="M47.717,41.764c-5.554,14.82-5.026,28.555,1.178,30.678
		c6.204,2.123,15.736-8.171,21.29-22.991c5.554-14.82,5.026-28.555-1.178-30.678S53.27,26.943,47.717,41.764z"/>
	<path style="opacity:0.1;fill:#040000;" d="M141.053,506.378c0-3.091-2.647-5.621-5.884-5.621h-1.461v-7.496h5.446V237.727h-0.551
		c-0.051-0.794-0.201-1.593-0.585-2.374c-3.429-6.969-5.243-10.458-8.959-17.444c-0.484-0.91-1.204-1.641-2.013-2.258v-40.076h-0.73
		C125.917,70.727,94.399,1.937,74.835,0.093V512h74.867L141.053,506.378z"/>
</g>
</svg>

<svg width="150" height="512" viewBox="0 0 150 512" fill="none" xmlns="http://www.w3.org/2000/svg">
<path d="M133.677 248.362H14.327V503.854H133.677V248.362Z" fill="#C96A55"/>
<path d="M126.346 173.66V177.592H74.835C74.302 177.592 74.035 177.592 74.035 177.592C74.035 177.592 50.512 177.592 21.724 177.592V175.593C21.924 120.882 30.653 75.968 41.649 45.314C52.111 16.327 64.573 0 74.035 0C74.301 0 74.568 0 74.835 0.067C74.902 0.067 74.968 0.067 75.035 0.134C75.568 0.134 76.168 0.267 76.701 0.468C77.367 0.601 77.967 0.868 78.633 1.201C79.299 1.467 79.899 1.867 80.565 2.267C80.632 2.334 80.632 2.334 80.698 2.4C81.364 2.799 81.964 3.266 82.63 3.866C83.297 4.399 83.963 4.932 84.629 5.599C87.961 8.864 91.426 13.529 94.825 19.526C95.558 20.793 96.291 22.125 97.024 23.524C97.024 23.524 97.091 23.524 97.091 23.591C97.757 24.99 98.49 26.389 99.223 27.856C100.023 29.655 100.889 31.454 101.755 33.387C102.955 36.186 104.087 39.119 105.354 42.251C106.087 44.25 106.82 46.382 107.553 48.515C108.885 52.381 110.152 56.378 111.351 60.644C116.416 78.102 120.681 98.894 123.346 122.551C123.812 126.816 124.212 131.148 124.612 135.546C124.945 139.744 125.278 144.009 125.545 148.407C125.812 153.805 126.078 159.336 126.212 164.933V165.866C126.28 168.462 126.346 171.061 126.346 173.66Z" fill="#C96A55"/>
<path d="M127.08 175.593H20.991V216.176H127.08V175.593Z" fill="#C96A55"/>
<path d="M138.608 237.7C138.941 241.431 135.743 245.03 131.344 245.03C108.821 245.03 91.761 245.097 74.835 245.097C57.242 245.097 39.783 245.097 16.327 245.03C11.929 245.03 8.73001 241.431 9.06301 237.7C9.06301 236.9 9.26301 236.167 9.66301 235.368C13.061 228.371 14.927 224.905 18.592 217.909C19.192 216.843 19.992 215.976 20.991 215.377C22.191 214.511 23.657 214.111 25.123 214.044C45.048 213.977 59.908 213.977 74.836 213.977C89.097 213.977 103.49 213.977 122.549 214.044C124.215 214.111 125.814 214.643 127.08 215.643V215.71C127.213 215.71 127.346 215.843 127.48 215.976C127.613 216.109 127.813 216.243 127.947 216.442C128.413 216.909 128.813 217.376 129.08 217.909C132.745 224.906 134.611 228.371 138.009 235.368C138.209 235.702 138.342 236.101 138.409 236.5C138.541 236.9 138.608 237.3 138.608 237.7Z" fill="#C96A55"/>
<path d="M149.67 511.984H0L4.398 509.118L8.596 506.385C8.596 503.32 11.128 500.921 14.327 500.788H135.143C138.408 500.788 141.074 503.254 141.074 506.385L149.67 511.984Z" fill="#C96A55"/>
<path d="M139.141 237.7H8.92899V493.258H139.141V237.7Z" fill="#C96A55"/>
<path opacity="0.06" d="M47.717 41.764C42.163 56.584 42.691 70.319 48.895 72.442C55.099 74.565 64.631 64.271 70.185 49.451C75.739 34.631 75.211 20.896 69.007 18.773C62.803 16.65 53.27 26.943 47.717 41.764Z" fill="white"/>
<path opacity="0.1" d="M141.053 506.378C141.053 503.287 138.406 500.757 135.169 500.757H133.708V493.261H139.154V237.727H138.603C138.552 236.933 138.402 236.134 138.018 235.353C134.589 228.384 132.775 224.895 129.059 217.909C128.575 216.999 127.855 216.268 127.046 215.651V175.575H126.316C125.917 70.727 94.399 1.937 74.835 0.0930023V512H149.702L141.053 506.378Z" fill="#040000"/>
</svg>
